svg/glass_mug_off.svg

<svg xmlns="http://www.w3.org/2000/svg" viewBox="0 0 24 24"><path d="M20 19.35v-.01L6.66 6l-.59-.59-3.68-3.68L1.11 3l3.15 3.15C3.5 6.44 3 7.16 3 8v7c0 .82.5 1.5 1.2 1.83L8 18.6V20l-1 1v1h13.11l.73.73 1.27-1.27zM8 16.39 5 15V8h1.11L8 9.89zM8 4 7 3V2h14v1l-1 1v12.8L10.2 7H18V4h-8v2.8l-2-2z"/></svg>

<?xml version="1.0" encoding="UTF-8"?><!DOCTYPE svg PUBLIC "-//W3C//DTD SVG 1.1//EN" "http://www.w3.org/Graphics/SVG/1.1/DTD/svg11.dtd"><svg xmlns="http://www.w3.org/2000/svg" xmlns:xlink="http://www.w3.org/1999/xlink" version="1.1" id="mdi-glass-mug-off" width="24" height="24" viewBox="0 0 24 24"><path d="M20 19.35V19.34L6.66 6L6.07 5.41L2.39 1.73L1.11 3L4.26 6.15C3.5 6.44 3 7.16 3 8V15C3 15.82 3.5 16.5 4.2 16.83L8 18.6V20L7 21V22H20.11L20.84 22.73L22.11 21.46L20 19.35M8 16.39L5 15V8H6.11L8 9.89V16.39M8 4L7 3V2H21V3L20 4V16.8L10.2 7H18V4H10V6.8L8 4.8V4Z" /></svg>
